svgs/sharp-solid/block-quote.svg

<svg xmlns="http://www.w3.org/2000/svg" viewBox="0 0 448 512"><!--! Font Awesome Pro 6.6.0 by @fontawesome - https://fontawesome.com License - https://fontawesome.com/license (Commercial License) Copyright 2024 Fonticons, Inc. --><path d="M448 64L0 64l0 64 448 0 0-64zm0 160l-320 0 0 64 320 0 0-64zM128 384l0 64 320 0 0-64-320 0zM64 224L0 224 0 448l64 0 0-224z"/></svg>

<svg xmlns="http://www.w3.org/2000/svg" viewBox="0 0 448 512"><!--! Font Awesome Pro 6.5.2 by @fontawesome - https://fontawesome.com License - https://fontawesome.com/license (Commercial License) Copyright 2024 Fonticons, Inc. --><path d="M448 64H0v64H448V64zm0 160H128v64H448V224zM128 384v64H448V384H128zM64 224H0V448H64V224z"/></svg>
